dist/img/common/icons/ok.svg

<svg width="34" height="34" viewBox="0 0 34 34" fill="none" xmlns="http://www.w3.org/2000/svg">
    <g clip-path="url(#clip0_731_1059)">
        <path d="M17 34C26.3888 34 34 26.3888 34 17C34 7.61116 26.3888 0 17 0C7.61116 0 0 7.61116 0 17C0 26.3888 7.61116 34 17 34Z" fill="url(#paint0_linear_731_1059)"/>
        <path fill-rule="evenodd" clip-rule="evenodd" d="M17.3955 11.5416C18.3175 11.8582 18.8005 12.8449 18.477 13.7462C18.1534 14.6451 17.1436 15.1188 16.2216 14.8022C15.3019 14.4856 14.8166 13.4989 15.1425 12.5977C15.466 11.6988 16.4758 11.2251 17.3955 11.5416ZM19.4359 17.7277C19.6924 17.5775 19.979 17.4273 20.2817 17.4111C20.5937 17.3949 21.0096 17.5636 21.2176 17.7878C21.6636 18.2638 21.6959 19.0472 21.2037 19.5024C21.1275 19.5717 21.0304 19.6433 20.9333 19.7057C20.0483 20.2141 19.5445 20.4591 18.5347 20.674C18.6711 20.7803 18.8051 20.9074 18.9206 21.016C19.6023 21.6792 20.2956 22.3262 20.9749 22.9871C21.4209 23.4238 21.4417 24.0454 21.1182 24.5492C20.7693 25.0899 20.0483 25.224 19.4845 24.9143C19.3343 24.8311 19.1979 24.7202 19.0454 24.5746C18.3175 23.8698 17.5873 23.1604 16.8478 22.4695C16.7485 22.5619 16.5867 22.726 16.4596 22.8508C15.8149 23.4816 15.1864 24.1333 14.5347 24.7618C14.0032 25.2933 13.2083 25.2378 12.6907 24.7017C12.3071 24.3019 12.2563 23.6549 12.6029 23.2089C12.797 22.9709 13.0211 22.7606 13.243 22.548C13.7421 22.0443 14.5809 21.2586 15.0338 20.7433C14.2112 20.4799 13.2106 20.1748 12.5197 19.6826C11.9304 19.2621 11.8496 18.5388 12.2401 17.9657C12.388 17.7485 12.6006 17.5913 12.9333 17.5105C13.31 17.4203 13.6797 17.5012 14.0078 17.6838C14.9899 18.2314 15.8519 18.5064 17.1482 18.4163C17.9478 18.3354 18.7427 18.1321 19.4359 17.7277ZM18.2274 9.23777C20.4504 10.0026 21.6173 12.3851 20.834 14.5573C20.0529 16.7294 17.615 17.871 15.392 17.1061C13.169 16.3412 12.0021 13.9588 12.7854 11.7866C13.5665 9.61443 16.0044 8.47289 18.2274 9.23777Z" fill="#FEFEFE"/>
    </g>
</svg>

<svg width="34" height="34" fill="none" xmlns="http://www.w3.org/2000/svg"><g clip-path="url(#clip0_731_1059)"><path d="M17 34c9.389 0 17-7.611 17-17S26.389 0 17 0 0 7.611 0 17s7.611 17 17 17z" fill="url(#paint0_linear_731_1059)"/><path fill-rule="evenodd" clip-rule="evenodd" d="M17.395 11.542a1.719 1.719 0 011.082 2.204c-.324.9-1.333 1.373-2.255 1.056-.92-.316-1.405-1.303-1.08-2.204.324-.9 1.334-1.373 2.253-1.056zm2.04 6.186c.257-.15.544-.3.847-.317.312-.016.728.153.936.377.446.476.478 1.26-.014 1.714-.076.07-.174.141-.27.204-.886.508-1.39.753-2.4.968.137.106.271.233.387.342.681.663 1.375 1.31 2.054 1.971.446.437.467 1.058.143 1.562-.349.54-1.07.675-1.633.365a2.145 2.145 0 01-.44-.34c-.728-.704-1.458-1.414-2.197-2.105-.1.093-.261.257-.388.382-.645.63-1.274 1.282-1.925 1.91-.532.532-1.327.477-1.844-.06a1.156 1.156 0 01-.088-1.492c.194-.238.418-.448.64-.661.5-.504 1.338-1.29 1.79-1.805-.822-.263-1.822-.568-2.513-1.06-.59-.42-.67-1.144-.28-1.717.148-.218.36-.375.693-.456.377-.09.747-.009 1.075.174.982.547 1.844.822 3.14.732.8-.08 1.595-.284 2.288-.688zm-1.208-8.49c2.223.765 3.39 3.147 2.607 5.32-.781 2.171-3.219 3.313-5.442 2.548-2.223-.765-3.39-3.147-2.607-5.32.781-2.172 3.22-3.313 5.442-2.548z" fill="#FEFEFE"/></g></svg>
